X:1
T:Title
%%score { ( 1 4 5 ) | ( 2 3 ) }
L:1/8
Q:1/4=126
M:6/4
K:C
V:1 treble nm="Grand Piano"
V:4 treble 
V:5 treble 
V:2 bass 
V:3 bass 
V:1
 [EG]2 [FA]2 [EG]2 [_E^F]2 [=EG]2 [Ec]2 | B2 [Ec]2 [Fd]2 [Ec]6 | %2
w: John~R.~Sweney * * * * *||
 [Ac]2 [^GB]2 [Ac]2 [Bd]2 [Ac]2 [FA]2 | [FA]2 [EG]2 E2 D6 | D2 E2 F2 B2 A2 [B,DF]2 | E2 E2 F2 G6 | %6
w: ||||
 A2 B2 c2 [Ec]2 [EG]2 [Ge]2 | [Fd]2 [CFA]2 [DFB]2 .[CEc]6 | [DB]6- [DB]2 c2 d2 | [DF]6 z6 | %10
w: ||||
 C2 C2 C2 z2 c2 e2 | [Ec]12 | .c12 | [FA]6 z6 | .[B,D]12[K:bass] | [B,D]12 | .[CE]12[K:treble] | %17
w: |||||||
 [EG]2- [CE-G-]2 [CE-G-]2 [CEG]6 | [FA]2- [CF-A-]2 [CFA-]2 [DA]2 B2 c2 | d12 | .[Ge]12 | %21
w: ||||
 z2 C2 C2 [Ec]4 [Ge]2 | .[Fd]12 | [Ec]12 |] %24
w: |||
V:2
 [C,C]2 [C,C]2 [C,C]2 [C,C]2 [C,C]2 [C,G,]2 | [G,D]2 [G,,G,]2 [G,,B,]2 [C,C]6 | %2
 [F,C]2 [F,C]2 [F,C]2 [F,C]2 [F,C]2 [F,C]2 | [C,C]2 [C,C]2 [E,G,C]2 [G,B,]6 | %4
 [G,B,]2[K:treble] [G,C]2 [G,B,D]2 [G,DF]2 [G,CF]2[K:bass] [G,,G,]2 | %5
 [C,G,C]2 [C,G,C]2 [D,G,B,]2 [E,G,C]6 | [F,C]2 [F,A,F]2 [F,^G,F]2 [C,=G,]2 [C,C]2 [C,C]2 | %7
 [G,B,]2 G,,2 G,,2 .C,6 | G,2 G,2 G,2 z2[K:treble] E2 F2 | G,2 G,2 G,2 G,4 A2 | %10
 C,2 C,2 C,2 z2 E2 G2 | [C,G,]2 C,2 C,2 .C,6 | F2- [F,F-]2 [F,F-]2 [F,F]2 F,2 F,2 | %13
 C,2 C,2 C,2 C,4 C2 | G,,2 G,,2 G,,2 G,,2 B,,2 C,2 | G,,2 G,,2 G,,2 .G,,6 | C,2 C,2 C,2 z2 D2 _E2 | %17
 C,2 C,2 C,2 .C,6 | F,2 F,2 F,2 z2[K:treble] G2 A2 | G2- [G,G-]2 [G,G-]2 [G,G]6 | %20
 [C,C]2 C,2 C,2 C,2 [C,G,]2 [C,C]2 | [C,C]2 C,2 C,2 [C,G,]4 [C,C]2 | %22
 [G,B,]2 G,2 G,2 G,2 [G,,G,]2 [G,,G,]2 | [C,C]12 |] %24
V:3
 x12 | x12 | x12 | x12 | x2[K:treble] x8[K:bass] x2 | x12 | x12 | x12 | z6 .G,6[K:treble] | x12 | %10
 z6 .C,6 | x12 | .[F,A,]6 z6 | x12 | x12 | x12 | z6 .C,6 | x12 | z6 .[^F,C]6[K:treble] | %19
 .[G,B,]6 z6 | x12 | x12 | x12 | x12 |] %24
V:4
 x12 | x12 | x12 | x12 | x12 | x12 | x12 | x12 | x12 | B,2 B,2 B,2 .[DFB]6 | .[EG]12 | %11
 z2 G,2 G,2 .G,6 | z2 A,2 A,2 A,2 [CGB]2 [CFA]2 | C2 C2 C2 [CEG]4 E2 | %14
 G,2 G,2 G,2 G,2 [G,DF]2[K:bass] [G,CE]2 | G,2 G,2 G,2 .G,6 | G,2 G,2 G,2 z2[K:treble] F2 ^F2 | %17
 .C6 z6 | .C6 z6 | z2 B,2 B,2 .B,6 | z2 C2 C2 C2 [Ec]2 [FA]2 | [EG]6 z6 | %22
 z2 B,2 B,2 B,2 [CFA]2 [DFB]2 | x12 |] %24
V:5
 x12 | x12 | x12 | x12 | x12 | x12 | x12 | x12 | x12 | x12 | z6 .C6 | x12 | x12 | x12 | %14
 x10[K:bass] x2 | x12 | z6 .G,6[K:treble] | x12 | x12 | x12 | x12 | x12 | x12 | x12 |] %24

